twotone/svg/train.svg

<svg xmlns="http://www.w3.org/2000/svg" width="24" height="24"><path fill="none" d="M0 0h24v24H0V0z"/><g fill="currentColor"><path opacity=".3" d="M12 4c-3.51 0-4.96.48-5.57 1h11.13c-.6-.52-2.05-1-5.56-1zM6 15.5c0 .83.67 1.5 1.5 1.5h9c.83 0 1.5-.67 1.5-1.5V12H6v3.5zm9.5-2.5c.83 0 1.5.67 1.5 1.5s-.67 1.5-1.5 1.5-1.5-.67-1.5-1.5.67-1.5 1.5-1.5zm-7 0c.83 0 1.5.67 1.5 1.5S9.33 16 8.5 16 7 15.33 7 14.5 7.67 13 8.5 13z"/><circle cx="8.5" cy="14.5" r="1.5"/><circle cx="15.5" cy="14.5" r="1.5"/><path d="M12 2c-4 0-8 .5-8 4v9.5C4 17.43 5.57 19 7.5 19L6 20.5v.5h2l2-2h4l2 2h2v-.5L16.5 19c1.93 0 3.5-1.57 3.5-3.5V6c0-3.5-4-4-8-4zm0 2c3.51 0 4.96.48 5.57 1H6.43c.61-.52 2.06-1 5.57-1zM6 7h5v3H6V7zm12 8.5c0 .83-.67 1.5-1.5 1.5h-9c-.83 0-1.5-.67-1.5-1.5V12h12v3.5zm0-5.5h-5V7h5v3z"/></g></svg>

<?xml version="1.0" encoding="utf-8"?>
<!-- Generator: Adobe Illustrator 19.1.0, SVG Export Plug-In . SVG Version: 6.00 Build 0)  -->
<svg version="1.1" xmlns="http://www.w3.org/2000/svg" xmlns:xlink="http://www.w3.org/1999/xlink" x="0px" y="0px" width="24px"
	 height="24px" viewBox="0 0 24 24" enable-background="new 0 0 24 24" xml:space="preserve">
<g id="Bounding_Boxes">
	<path fill="none" d="M0,0h24v24H0V0z"/>
</g>
<g id="Duotone" fill="currentColor">
	<g id="ui_x5F_spec_x5F_header_copy_2">
	</g>
	<g>
		<path opacity="0.3" d="M12,4C8.49,4,7.04,4.48,6.43,5h11.13C16.96,4.48,15.51,4,12,4z"/>
		<path opacity="0.3" d="M6,15.5C6,16.33,6.67,17,7.5,17h9c0.83,0,1.5-0.67,1.5-1.5V12H6V15.5z M15.5,13c0.83,0,1.5,0.67,1.5,1.5
			c0,0.83-0.67,1.5-1.5,1.5S14,15.33,14,14.5C14,13.67,14.67,13,15.5,13z M8.5,13c0.83,0,1.5,0.67,1.5,1.5c0,0.83-0.67,1.5-1.5,1.5
			S7,15.33,7,14.5C7,13.67,7.67,13,8.5,13z"/>
		<circle cx="8.5" cy="14.5" r="1.5"/>
		<circle cx="15.5" cy="14.5" r="1.5"/>
		<path d="M12,2C8,2,4,2.5,4,6v9.5C4,17.43,5.57,19,7.5,19L6,20.5V21h2l2-2h4l2,2h2v-0.5L16.5,19c1.93,0,3.5-1.57,3.5-3.5V6
			C20,2.5,16,2,12,2z M12,4c3.51,0,4.96,0.48,5.57,1H6.43C7.04,4.48,8.49,4,12,4z M6,7h5v3H6V7z M18,15.5c0,0.83-0.67,1.5-1.5,1.5
			h-9C6.67,17,6,16.33,6,15.5V12h12V15.5z M18,10h-5V7h5V10z"/>
	</g>
</g>
</svg>
